X: 33280
T: Purple Wisent, The
R: reel
M: 4/4
K: Cmajor
cAAB GAAG|EGAB AAAB|cdef ggge|
dBBA G zAB|cAAB GAAG|EGAB A zcd|
edce dcBd|1 cAAB Az2B:|2 cAAB Az3||
fdde d3e|feda g zfg|gaaf ggge|fedf ddcA|
.f2de dcAG|FAEA d zFG|AGFA GFEG|FFFE D2z2||
fdde d3e|feda g zfg|a zaf _b2_ba|gggf efge|
.f2de dcAG|FAEA d zFG|A zFA zFAA|^FGGG ^FGAB||

